X:38
T:Copenhagen Waltz. WHG.037
R:waltz
S:W.H.Giles MS,Bampton,Oxfordshire,1839p34, p35
O:England
H:donated by Mrs W.R.Kettlewell to VWML,Apr 1927.
A:Bampton, Oxfordshire
Z:PJHeadford – VMP 2009
M:3/4
L:1/8
Q:1/4=160
K:G
(B<d)|(c<e) (B<d) (A<c)|(B<d) G2 (B<d)|\
(A<c) D2 (F<A)|(G<B) D2 (B<d)|
(c<e) (B<d) (A<c)|(B<d) G2 (B<d)|\
(A<c) D2 (F<A)|G4:|
|:d2|e2d2 B2|G4 d2|e2d2 B2|{c<A}A4 d2|\
e2d2 B2|(GF)G BcB|dcB cAF|G4″ Da Capo”:|

